svgs/thin/asterisk.svg

<svg xmlns="http://www.w3.org/2000/svg" viewBox="0 0 448 512"><!--! Font Awesome Pro 6.3.0 by @fontawesome - https://fontawesome.com License - https://fontawesome.com/license (Commercial License) Copyright 2023 Fonticons, Inc. --><path d="M412.1 357.1c3.753 2.203 5.045 7.094 2.891 10.92c-1.476 2.562-4.121 4-6.828 4c-1.353 0-2.707-.3438-3.937-1.078l-172.3-101.1V472c0 4.422-3.538 8-7.875 8c-4.337 0-7.874-3.578-7.874-8V269.8l-172.3 101.1C42.58 371.7 41.22 372 39.87 372c-2.707 0-5.352-1.438-6.829-4c-2.153-3.828-.8607-8.719 2.892-10.92L208.3 256L35.93 154.9C32.18 152.7 30.89 147.8 33.04 144c2.215-3.859 7.045-5.125 10.77-2.922l172.3 101.1V40c0-4.422 3.537-8 7.874-8c4.337 0 7.875 3.578 7.875 8v202.2l172.3-101.1C407.9 138.9 412.7 140.1 414.1 144c2.154 3.828 .8619 8.719-2.891 10.92L239.7 256L412.1 357.1z"/></svg>

<svg xmlns="http://www.w3.org/2000/svg" viewBox="0 0 448 512"><!-- Font Awesome Pro 6.0.0-alpha2 by @fontawesome - https://fontawesome.com License - https://fontawesome.com/license (Commercial License) --><path d="M412.067 357.078C415.82 359.281 417.112 364.172 414.958 368C413.482 370.562 410.837 372 408.13 372C406.776 372 405.423 371.656 404.193 370.922L231.875 269.85V472C231.875 476.422 228.337 480 224 480S216.126 476.422 216.126 472V269.85L43.808 370.922C42.577 371.656 41.224 372 39.87 372C37.164 372 34.518 370.562 33.041 368C30.889 364.172 32.18 359.281 35.933 357.078L208.263 256L35.933 154.922C32.18 152.719 30.889 147.828 33.041 144C35.256 140.141 40.086 138.875 43.808 141.078L216.126 242.15V40C216.126 35.578 219.663 32 224 32S231.875 35.578 231.875 40V242.15L404.193 141.078C407.884 138.875 412.713 140.141 414.958 144C417.112 147.828 415.82 152.719 412.067 154.922L239.738 256L412.067 357.078Z"/></svg>
